images/mast_other.svg

<?xml version="1.0" encoding="UTF-8" standalone="no"?>
<svg xmlns:dc="http://purl.org/dc/elements/1.1/" xmlns:cc="http://creativecommons.org/ns#" xmlns:rdf="http://www.w3.org/1999/02/22-rdf-syntax-ns#" xmlns:svg="http://www.w3.org/2000/svg" xmlns="http://www.w3.org/2000/svg" xmlns:sodipodi="http://sodipodi.sourceforge.net/DTD/sodipodi-0.dtd" xmlns:inkscape="http://www.inkscape.org/namespaces/inkscape" version="1.1" width="14" height="14" viewBox="0 0 14 14" id="svg4138" sodipodi:docname="mast.svg" inkscape:version="0.92.4 (5da689c313, 2019-01-14)">
  <sodipodi:namedview pagecolor="#ffffff" bordercolor="#666666" borderopacity="1" objecttolerance="10" gridtolerance="10" guidetolerance="10" inkscape:pageopacity="0" inkscape:pageshadow="2" inkscape:window-width="1881" inkscape:window-height="1051" id="namedview2162" showgrid="false" inkscape:pagecheckerboard="true" inkscape:zoom="16.857143" inkscape:cx="7" inkscape:cy="7" inkscape:window-x="0" inkscape:window-y="0" inkscape:window-maximized="1" inkscape:current-layer="svg4138" />
  <metadata id="metadata4146">
    <rdf:RDF>
      <cc:Work rdf:about="">
        <dc:format>image/svg+xml</dc:format>
        <dc:type rdf:resource="http://purl.org/dc/dcmitype/StillImage" />
        <dc:title></dc:title>
      </cc:Work>
    </rdf:RDF>
  </metadata>
  <defs id="defs4144" />
  <path id="outline" d="M 7,1 C 6.4022075,1 6,1.4692172 6,2 V 9 L 3.1132812,14 H 4.2675781 L 6,11 V 14 H 8 V 11 L 9.7324219,14 H 10.886719 L 8,9 V 2 C 8,1.5039063 7.5977925,1 7,1 Z" style="opacity:0.5;fill:none;stroke:#f6ffff;stroke-width:3;stroke-linecap:round;stroke-linejoin:round;stroke-miterlimit:4;stroke-dasharray:none;stroke-opacity:1" inkscape:connector-curvature="0" />
  <path d="M 7,1 C 6.4022075,1 6,1.4692172 6,2 L 6,9 3.1132812,14 4.2675781,14 6,11 6,14 8,14 8,11 9.7324219,14 10.886719,14 8,9 8,2 C 8,1.5039063 7.5977925,1 7,1 Z" id="mast" />
</svg>

<svg xmlns="http://www.w3.org/2000/svg" width="14" height="14">
    <path d="M7 1c-.598 0-1 .47-1 1v7l-2.887 5h1.155L6 11v3h2v-3l1.732 3h1.155L8 9V2c0-.496-.402-1-1-1z" opacity=".5" fill="none" stroke="#f6ffff" stroke-width="3" stroke-linecap="round" stroke-linejoin="round"/>
    <path d="M7 1c-.598 0-1 .47-1 1v7l-2.887 5h1.155L6 11v3h2v-3l1.732 3h1.155L8 9V2c0-.496-.402-1-1-1z"/>
</svg>
